bundle/image/pages/questions/img/p3.svg

<svg width="69" height="69" viewBox="0 0 69 69" fill="none" xmlns="http://www.w3.org/2000/svg">
<path d="M1.01583 27.2896C4.96415 8.84503 23.1989 -2.94268 41.6434 1.00563C47.0032 2.15007 51.8671 4.4771 56.0824 7.92949L53.5265 11.0576C49.807 8.02483 45.5345 5.98395 40.8042 4.95396C24.5341 1.46342 8.45472 11.8587 4.98325 28.1288C1.49272 44.3989 11.888 60.4783 28.1581 63.9497C44.4282 67.4212 60.5076 57.045 63.979 40.7749C64.8374 36.7884 64.8755 32.7638 64.1316 28.7964L68.099 28.0335C68.9573 32.5349 68.9001 37.1127 67.9464 41.6141C63.9981 60.0587 45.7634 71.8464 27.3189 67.8981C8.87433 63.9498 -2.91338 45.715 1.03493 27.2705L1.01583 27.2896Z" fill="white"/>
</svg>

<svg width="69" height="69" fill="none" xmlns="http://www.w3.org/2000/svg"><path d="M1.016 27.29C4.964 8.845 23.199-2.943 41.643 1.006c5.36 1.144 10.224 3.471 14.44 6.923l-2.556 3.129c-3.72-3.033-7.992-5.074-12.723-6.104-16.27-3.49-32.35 6.905-35.82 23.175-3.491 16.27 6.904 32.35 23.174 35.82 16.27 3.472 32.35-6.904 35.821-23.174.858-3.987.897-8.011.153-11.979l3.967-.762c.858 4.5.801 9.079-.153 13.58C63.998 60.06 45.763 71.846 27.32 67.898 8.874 63.95-2.913 45.715 1.035 27.271l-.02.019z" fill="#fff"/></svg>
